images/css-ico.svg

<svg enable-background="new 0 0 70.3 98.5" viewBox="0 0 70.3 98.5" xmlns="http://www.w3.org/2000/svg"><g fill="#576371"><path d="m18.9 8.9v-4.3h6.2v-4.6h-10.8v13.1h10.8v-4.2zm17.4-4.3h4.3v-4.6h-10.8v4.6c1.5 1.5 2.2 2.1 4.3 4.2-1.2 0-4.3 0-4.3 0v4.2h10.8v-4.1zm15.4 0h4.3v-4.6h-10.9v4.6c1.5 1.5 2.2 2.1 4.3 4.2-1.2 0-4.3 0-4.3 0v4.2h10.9v-4.1z"/><path d="m0 19.4 6.6 71.4 28.6 7.7 28.6-7.7 6.6-71.4zm56.1 23.1-21 9h-.1 20.3l-2.3 26.7-17.9 5.2-18-5.3-1.1-13.4h8.9l.6 7 9.6 2.4 10-2.8.6-11.3h-30.3l-.7-8.4 20.4-8.6 1.2-.5h-22.4l-1.1-8.6h44.2z"/></g></svg>

<?xml version="1.0" encoding="utf-8"?>
<!-- Generator: Adobe Illustrator 22.1.0, SVG Export Plug-In . SVG Version: 6.00 Build 0)  -->
<svg version="1.1" id="Layer_1" xmlns="http://www.w3.org/2000/svg" xmlns:xlink="http://www.w3.org/1999/xlink" x="0px" y="0px"
	 viewBox="0 0 70.3 98.5" style="enable-background:new 0 0 70.3 98.5;" xml:space="preserve">
<style type="text/css">
	.st0{fill:#576371;}
</style>
<g>
	<path class="st0" d="M18.9,8.9V4.6h6.2V0H14.3v13.1h10.8V8.9H18.9z M36.3,4.6h4.3V0H29.8v4.6c1.5,1.5,2.2,2.1,4.3,4.2
		c-1.2,0-4.3,0-4.3,0v4.2h10.8V8.9L36.3,4.6L36.3,4.6z M51.7,4.6H56V0H45.1v4.6c1.5,1.5,2.2,2.1,4.3,4.2c-1.2,0-4.3,0-4.3,0v4.2H56
		V8.9L51.7,4.6L51.7,4.6z"/>
	<path class="st0" d="M0,19.4l6.6,71.4l28.6,7.7l28.6-7.7l6.6-71.4H0z M56.1,42.5L56.1,42.5l-21,9l-0.1,0h20.3l-2.3,26.7l-17.9,5.2
		l-18-5.3L16,64.7h8.9l0.6,7l9.6,2.4l10-2.8L45.7,60L15.4,60l0,0l0,0l-0.7-8.4L35.1,43l1.2-0.5H13.9l-1.1-8.6H57L56.1,42.5z"/>
</g>
</svg>
